build/system/UserRoleFromOutline.svg

<svg xmlns="http://www.w3.org/2000/svg" fill="none" viewBox="0 0 24 24" focusable="false"><path d="M0 0H24V24H0z"/><path fill="#74767B" fill-rule="evenodd" d="M12 3C9.33497 3 7.26365 5.32002 7.56456 7.96802L7.8266 10.274C8.06781 12.3966 9.86377 14 12 14C14.1363 14 15.9322 12.3966 16.1734 10.274L16.4355 7.96803C16.7364 5.32002 14.6651 3 12 3ZM14.8817 10.1272L15.1438 7.82124C15.3571 5.94439 13.889 4.3 12 4.3C10.1111 4.3 8.64297 5.94439 8.85625 7.82124L9.11829 10.1272C9.28484 11.5928 10.5249 12.7 12 12.7C13.4751 12.7 14.7152 11.5928 14.8817 10.1272ZM17.2547 14.7067C17.0747 14.7067 16.9047 14.7767 16.7747 14.9167C16.5347 15.1867 16.5547 15.5967 16.8147 15.8367L18.3723 17.3222L14.9939 17.3222C14.6349 17.3222 14.3439 17.6132 14.3439 17.9722C14.3439 18.3312 14.6349 18.6222 14.9939 18.6222L18.3653 18.6222L16.8147 19.9967C16.5447 20.2367 16.5347 20.6467 16.7747 20.9167C17.0147 21.1767 17.4247 21.1967 17.6947 20.9567L20.4047 18.4922C20.7147 18.2122 20.7147 17.7322 20.4047 17.4522L17.6947 14.8767C17.5647 14.7567 17.4147 14.7067 17.2547 14.7067ZM4.28926 19.6984C4.89931 16.9532 7.33419 15 10.1464 15L12.6571 15C13.0161 15 13.3071 15.291 13.3071 15.65C13.3071 16.009 13.0161 16.3 12.6571 16.3L10.1464 16.3C8.04051 16.3 6.20474 17.6982 5.62966 19.7L12.6571 19.7C13.0161 19.7 13.3071 19.991 13.3071 20.35C13.3071 20.709 13.0161 21 12.6571 21L4.87265 21C4.42482 21 4.09217 20.5853 4.18932 20.1481L4.28926 19.6984Z"/></svg>

<svg xmlns="http://www.w3.org/2000/svg" fill="none" viewBox="0 0 24 24" focusable="false"><path fill="#74767B" fill-rule="evenodd" d="M7.56 7.96C7.26 5.32 9.33 3 12 3a4.46 4.46 0 0 1 4.43 4.96l-.26 2.31A4.206 4.206 0 0 1 12 14c-2.14 0-3.94-1.61-4.18-3.73zm7.58-.14-.26 2.3A2.91 2.91 0 0 1 12 12.7a2.91 2.91 0 0 1-2.89-2.58l-.26-2.3A3.176 3.176 0 0 1 12 4.29c1.88 0 3.35 1.65 3.14 3.53m2.11 6.88c-.18 0-.35.07-.48.21-.24.27-.22.68.04.92l1.56 1.49h-3.38c-.36 0-.65.29-.65.65s.29.65.65.65h3.37l-1.55 1.37a.65.65 0 0 0-.04.92c.24.26.65.28.92.04l2.71-2.46c.31-.28.31-.76 0-1.04l-2.71-2.58a.63.63 0 0 0-.44-.17M4.28 19.69A6 6 0 0 1 10.14 15h2.51c.36 0 .65.29.65.65 0 .35-.29.64-.65.64h-2.51c-2.1 0-3.94 1.4-4.52 3.41h7.03c.36 0 .65.29.65.65 0 .35-.29.65-.65.65H4.87c-.45 0-.78-.42-.69-.86z"/></svg>
